X:82
T:Nos Fercher
T:Wednesday Night
B:National Library of Wales, MS. J. Lloyd Williams, 53
D:Ar Log O IV i V
O:Wales
Z:Manuel Waldesco
M:4/4
K:Dmaj
|D2FA d2f2|edcB AGFE|D2FA d2f2|edcd e2d2:|
|a2fd a2fd|edcB AGFE|1 D2FA d2f2| edcd e2d2:|2 D2FA d2g2| fdec d4||
